X: 38
T:Nancy
% Nottingham Music Database
P:AAB
S:Nan F-W, via EF
M:4/4
L:1/4
K:D
A2/3B2/3c2/3|"D"dD FA|"D"df/2e/2 dA|"D"de g/2f/2e/2d/2|\
"A7"c/2d/2e/2c/2 A/2B/2c/2A/2|
"D"dD FA|"D"df/2e/2 dA|"G"Bg "A7"f/2e/2d/2c/2|"D"d2 d:|
f/2g/2|"D"a3/2b/2 ag/2f/2|"G"g3/2a/2 "A7"gf/2e/2|"D"fd "G"g/2f/2e/2d/2|\
"E7"c/2d/2e/2c/2 "A7"Af/2g/2|"D"a3/2b/2 ag/2f/2|
"G"g3/2a/2 "A7"gf/2e/2|"G"Bg "A7"f/2e/2d/2c/2|"D"d2 "A7"d/2e/2f/2g/2|\
"D"a3/2b/2 ag/2f/2|"G"g3/2a/2 "A7"gf/2e/2|
"D"fd "G"g/2f/2e/2d/2|"E7"c/2d/2e/2c/2 "A7"AB/2c/2|"D"dD FA|"D"df/2e/2 dA|\
"G"Bg "A7"f/2e/2d/2c/2|"D"d2 d||


